static/bulb.svg

<svg width="24" height="24" viewBox="0 0 24 24" fill="none" xmlns="http://www.w3.org/2000/svg">
<path d="M12 0.75C10.1846 0.749592 8.41966 1.34803 6.97886 2.45256C5.53806 3.55709 4.50182 5.10602 4.03074 6.8593C3.55967 8.61258 3.68007 10.4723 4.37329 12.1502C5.06651 13.8281 6.29383 15.2305 7.86503 16.14C8.55103 16.538 8.98003 17.148 8.99903 17.763C9.00427 17.9277 9.06363 18.0861 9.16792 18.2138C9.27222 18.3414 9.41564 18.4311 9.57603 18.469C9.92803 18.552 10.286 18.617 10.65 18.664C10.973 18.705 11.25 18.446 11.25 18.12V13.459C10.934 13.4243 10.6209 13.3671 10.313 13.288C10.2176 13.2634 10.128 13.2203 10.0492 13.1611C9.9705 13.1019 9.90418 13.0278 9.85408 12.943C9.80399 12.8582 9.77109 12.7643 9.75727 12.6668C9.74344 12.5692 9.74897 12.4699 9.77353 12.3745C9.79808 12.2791 9.84119 12.1895 9.90039 12.1107C9.95959 12.032 10.0337 11.9657 10.1185 11.9156C10.2034 11.8655 10.2972 11.8326 10.3948 11.8187C10.4923 11.8049 10.5916 11.8104 10.687 11.835C11.5483 12.057 12.4518 12.057 13.313 11.835C13.4094 11.8072 13.5103 11.7991 13.6099 11.811C13.7095 11.8229 13.8057 11.8547 13.8927 11.9045C13.9798 11.9542 14.056 12.0209 14.1169 12.1007C14.1777 12.1804 14.222 12.2715 14.247 12.3686C14.272 12.4657 14.2773 12.5669 14.2625 12.6661C14.2478 12.7653 14.2133 12.8605 14.161 12.9461C14.1088 13.0317 14.04 13.106 13.9586 13.1646C13.8771 13.2231 13.7848 13.2648 13.687 13.287C13.3792 13.3665 13.066 13.4239 12.75 13.459V18.119C12.75 18.446 13.027 18.705 13.35 18.664C13.714 18.617 14.072 18.552 14.424 18.469C14.5844 18.4311 14.7278 18.3414 14.8321 18.2138C14.9364 18.0861 14.9958 17.9277 15.001 17.763C15.021 17.148 15.449 16.538 16.135 16.14C17.7062 15.2305 18.9335 13.8281 19.6268 12.1502C20.32 10.4723 20.4404 8.61258 19.9693 6.8593C19.4982 5.10602 18.462 3.55709 17.0212 2.45256C15.5804 1.34803 13.8155 0.749592 12 0.75Z" fill="#6AC4DD"/>
<path fill-rule="evenodd" clip-rule="evenodd" d="M9.01303 19.9C9.03139 19.8032 9.06865 19.711 9.12267 19.6286C9.17668 19.5462 9.2464 19.4752 9.32785 19.4198C9.40929 19.3644 9.50086 19.3255 9.59732 19.3055C9.69378 19.2854 9.79324 19.2846 9.89003 19.303C11.2843 19.5675 12.7158 19.5675 14.11 19.303C14.208 19.2814 14.3093 19.2797 14.4079 19.298C14.5066 19.3163 14.6005 19.3542 14.6843 19.4094C14.768 19.4646 14.8398 19.5361 14.8954 19.6196C14.951 19.7031 14.9894 19.7969 15.0081 19.8954C15.0268 19.994 15.0256 20.0953 15.0045 20.1933C14.9834 20.2914 14.9428 20.3842 14.8852 20.4663C14.8275 20.5484 14.754 20.6181 14.669 20.6713C14.5839 20.7245 14.4891 20.7601 14.39 20.776C12.8108 21.0757 11.1893 21.0757 9.61003 20.776C9.41475 20.7389 9.24218 20.6258 9.13024 20.4615C9.0183 20.2973 8.97614 20.0953 9.01303 19.9ZM9.75403 22.344C9.76426 22.246 9.7937 22.151 9.84065 22.0644C9.8876 21.9779 9.95115 21.9014 10.0277 21.8393C10.1042 21.7773 10.1922 21.7309 10.2866 21.7029C10.381 21.6749 10.4801 21.6657 10.578 21.676C11.5235 21.7748 12.4766 21.7748 13.422 21.676C13.6199 21.6553 13.8178 21.7141 13.9724 21.8393C14.1269 21.9646 14.2253 22.1461 14.246 22.344C14.2667 22.5419 14.208 22.7398 14.0827 22.8943C13.9574 23.0489 13.7759 23.1473 13.578 23.168C12.5289 23.2778 11.4712 23.2778 10.422 23.168C10.3241 23.1578 10.2291 23.1283 10.1425 23.0814C10.0559 23.0344 9.97938 22.9709 9.91735 22.8944C9.85532 22.8178 9.80897 22.7299 9.78095 22.6354C9.75293 22.541 9.74378 22.442 9.75403 22.344Z" fill="#6AC4DD"/>
</svg>

<svg xmlns="http://www.w3.org/2000/svg" viewBox="0 0 24 24" fill="currentColor" class="w-6 h-6">
    <path d="M12 .75a8.25 8.25 0 00-4.135 15.39c.686.398 1.115 1.008 1.134 1.623a.75.75 0 00.577.706c.352.083.71.148 1.074.195.323.041.6-.218.6-.544v-4.661a6.714 6.714 0 01-.937-.171.75.75 0 11.374-1.453 5.261 5.261 0 002.626 0 .75.75 0 11.374 1.452 6.712 6.712 0 01-.937.172v4.66c0 .327.277.586.6.545.364-.047.722-.112 1.074-.195a.75.75 0 00.577-.706c.02-.615.448-1.225 1.134-1.623A8.25 8.25 0 0012 .75z" />
    <path fill-rule="evenodd" d="M9.013 19.9a.75.75 0 01.877-.597 11.319 11.319 0 004.22 0 .75.75 0 11.28 1.473 12.819 12.819 0 01-4.78 0 .75.75 0 01-.597-.876zM9.754 22.344a.75.75 0 01.824-.668 13.682 13.682 0 002.844 0 .75.75 0 11.156 1.492 15.156 15.156 0 01-3.156 0 .75.75 0 01-.668-.824z" clip-rule="evenodd" />
  </svg>
